src/Pure/16/symbolic/devices/audio-headset-symbolic.svg

<?xml version="1.0" encoding="UTF-8" standalone="no"?>
<svg
   width="16"
   height="16"
   version="1.1"
   id="svg1"
   sodipodi:docname="audio-headset-symbolic.svg"
   inkscape:version="1.4.2 (ebf0e940d0, 2025-05-08)"
   xmlns:inkscape="http://www.inkscape.org/namespaces/inkscape"
   xmlns:sodipodi="http://sodipodi.sourceforge.net/DTD/sodipodi-0.dtd"
   xmlns="http://www.w3.org/2000/svg"
   xmlns:svg="http://www.w3.org/2000/svg">
  <defs
     id="defs1">
    <style
       id="current-color-scheme"
       type="text/css">
        .ColorScheme-Text { color:#363636; }
     </style>
  </defs>
  <sodipodi:namedview
     id="namedview1"
     pagecolor="#ffffff"
     bordercolor="#000000"
     borderopacity="0.25"
     inkscape:showpageshadow="2"
     inkscape:pageopacity="0.0"
     inkscape:pagecheckerboard="0"
     inkscape:deskcolor="#d1d1d1"
     inkscape:zoom="49.678185"
     inkscape:cx="8.0015001"
     inkscape:cy="8.0015001"
     inkscape:window-width="1920"
     inkscape:window-height="1010"
     inkscape:window-x="0"
     inkscape:window-y="0"
     inkscape:window-maximized="1"
     inkscape:current-layer="svg1" />
  <path
     id="path1"
     style="fill:currentColor"
     class="ColorScheme-Text"
     d="m 8,0.00195313 c -3.3137,0 -6,2.68629997 -6,5.99999997 v 5.9999999 c 0,1.6569 1.3432,3 3,3 h 1.2675781 c 0.3458,0.5978 0.9921419,1 1.7324219,1 1.1046,0 2,-0.8954 2,-2 0,-1.1046 -0.8954,-2 -2,-2 -1.10457,0 -2,0.8954 -2,2 H 5 c -1.10457,0 -2,-0.8954 -2,-2 v -1 h 2 c 0.55228,0 1,-0.4477 1,-1 V 7.0019531 c 0,-0.55228 -0.44772,-1 -1,-1 H 3 c 0,-2.7614 2.2386,-5 5,-5 2.7614,0 5,2.2386 5,5 h -2 c -0.5523,0 -1,0.44772 -1,1 v 2.9999999 c 0,0.5523 0.4477,1 1,1 h 1 c 1.1046,0 2,-0.8954 2,-1.9999999 v -3 C 14,2.6882531 11.3137,0.00195313 8,0.00195313 Z M 3,7.0019531 H 5 V 10.001953 H 3 Z m 8,0 h 2 v 2 c 0,0.5523 -0.4477,0.9999999 -1,0.9999999 H 11 Z M 8,13.001953 c 0.5523,0 1,0.4477 1,1 0,0.5523 -0.4477,1 -1,1 -0.55228,0 -1,-0.4477 -1,-1 0,-0.5523 0.44772,-1 1,-1 z" />
</svg>

<?xml version="1.0" encoding="UTF-8" standalone="no"?>
<svg
   width="16"
   height="16.003"
   version="1.1"
   id="svg1"
   sodipodi:docname="audio-headset-symbolic.svg"
   inkscape:version="1.4.2 (ebf0e940d0, 2025-05-08)"
   xmlns:inkscape="http://www.inkscape.org/namespaces/inkscape"
   xmlns:sodipodi="http://sodipodi.sourceforge.net/DTD/sodipodi-0.dtd"
   xmlns="http://www.w3.org/2000/svg"
   xmlns:svg="http://www.w3.org/2000/svg">
  <defs
     id="defs1">
     <style
        id="current-color-scheme"
        type="text/css">
        .ColorScheme-Text { color:#363636; }
     </style>
  </defs>
  <sodipodi:namedview
     id="namedview1"
     pagecolor="#ffffff"
     bordercolor="#000000"
     borderopacity="0.25"
     inkscape:showpageshadow="2"
     inkscape:pageopacity="0.0"
     inkscape:pagecheckerboard="0"
     inkscape:deskcolor="#d1d1d1"
     inkscape:zoom="49.678185"
     inkscape:cx="8.0015001"
     inkscape:cy="8.0015001"
     inkscape:window-width="1920"
     inkscape:window-height="1010"
     inkscape:window-x="0"
     inkscape:window-y="0"
     inkscape:window-maximized="1"
     inkscape:current-layer="svg1" />
  <path
     id="path1"
     style="fill:currentColor"
     class="ColorScheme-Text"
     d="M 8 0.001953125 C 4.6863 0.001953125 2 2.6882531 2 6.0019531 L 2 12.001953 C 2 13.658853 3.3432 15.001953 5 15.001953 L 6.2675781 15.001953 C 6.6133781 15.599753 7.25972 16.001953 8 16.001953 C 9.1046 16.001953 10 15.106553 10 14.001953 C 10 12.897353 9.1046 12.001953 8 12.001953 C 6.89543 12.001953 6 12.897353 6 14.001953 L 5 14.001953 C 3.89543 14.001953 3 13.106553 3 12.001953 L 3 11.001953 L 5 11.001953 C 5.55228 11.001953 6 10.554253 6 10.001953 L 6 7.0019531 C 6 6.4496731 5.55228 6.0019531 5 6.0019531 L 3 6.0019531 C 3 3.2405531 5.2386 1.0019531 8 1.0019531 C 10.7614 1.0019531 13 3.2405531 13 6.0019531 L 11 6.0019531 C 10.4477 6.0019531 10 6.4496731 10 7.0019531 L 10 10.001953 C 10 10.554253 10.4477 11.001953 11 11.001953 L 12 11.001953 C 13.1046 11.001953 14 10.106553 14 9.0019531 L 14 6.0019531 C 14 2.6882531 11.3137 0.001953125 8 0.001953125 z M 3 7.0019531 L 5 7.0019531 L 5 10.001953 L 3 10.001953 L 3 7.0019531 z M 11 7.0019531 L 13 7.0019531 L 13 9.0019531 C 13 9.5542531 12.5523 10.001953 12 10.001953 L 11 10.001953 L 11 7.0019531 z M 8 13.001953 C 8.5523 13.001953 9 13.449653 9 14.001953 C 9 14.554253 8.5523 15.001953 8 15.001953 C 7.44772 15.001953 7 14.554253 7 14.001953 C 7 13.449653 7.44772 13.001953 8 13.001953 z " />
</svg>
